X:845
T:The Cameronian
M:C|
K:D
dB|:A2FA DAFA|GE (3EDE GBdB|{d}BAFA DAFA|1 GBAG FDeB:|2 GBAG FDD2|
Ad dc (3ded cd|edef gfed|(3cBA eA fAeA|fdef gfed|
